X: 29974
T: Oblique
R: jig
M: 6/8
K: Amajor
FAB c3|BAc BAF|c3 BAF|ABB B z2|
FAB Bce|BAB BAF|c3 BAF|EFA F z2|
FAB BcB|BAc BAF|c2 B- BAF|ABc B z2|
FAB BcB|BAB BAF|c2A BAF|EFF F z C|
E2F AFF|ABB BAF|EFF AFF|c2 B -BAF|
EFF AFF|B3 BAF|c z2 BAF|EFA F z2|
EFF AFF|ABB BAF|EFF AFF|c2A BAF|
E2F AFF|B3 BAF|c2 e BAF|EFF F3||

